Adwaita++-Light/panel/16/gpm-brightness-kbd.svg

<svg height="16" width="16" xmlns="http://www.w3.org/2000/svg">
  <g fill="#444">
    <path d="m8 0-2.1894531 2h-2.8105469v2.8105469l-2.2792969 2.1894531h3.2792969c0-2.2099999 1.7900001-4 4-4 2.21 0 4 1.7900001 4 4h3.279297l-2.279297-2v-3h-2.779297zm0 4c-1.6569 0-3 1.3431-3 3h3z"/>
    <path d="m15 9c0-.554-.446-1-1-1h-13c-.554 0-1 .446-1 1v5c0 .554.446 1 1 1h13c.554 0 1-.446 1-1zm-3 0v1h-1v-1zm0 2v1h-1v-1zm-1 2v1h-6.9999998v-1zm-1-4v1h-1v-1zm0 2v1h-1v-1zm-2-2v1h-1v-1zm0 2v1h-1v-1zm-2-2v1h-.9999998v-1zm0 2v1h-.9999998v-1zm-1.9999998-2v1h-1v-1zm0 2v1h-1v-1z" fill-rule="evenodd"/>
  </g>
</svg>

<svg xmlns="http://www.w3.org/2000/svg" width="16" height="16" version="1.1">
 <defs>
  <style id="current-color-scheme" type="text/css">
   .ColorScheme-Text { color:#444444; } .ColorScheme-Highlight { color:#4285f4; }
  </style>
 </defs>
 <path style="fill:currentColor" class="ColorScheme-Text" d="M 8,0 5.8105469,2 H 3 V 4.8105469 L 0.7207031,7 H 4 C 4,4.7900001 5.7900001,3 8,3 c 2.21,0 4,1.7900001 4,4 h 3.279297 L 13,5 V 2 H 10.220703 Z M 8,4 C 6.3431,4 5,5.3431 5,7 h 3 z"/>
 <path class="ColorScheme-Text" d="M 15,9 C 15,8.446 14.554,8 14,8 H 1 C 0.446,8 0,8.446 0,9 v 5 c 0,0.554 0.446,1 1,1 h 13 c 0.554,0 1,-0.446 1,-1 z m -3,0 v 1 H 11 V 9 Z m 0,2 v 1 h -1 v -1 z m -1,2 v 1 H 4.0000002 V 13 Z M 10,9 v 1 H 9 V 9 Z m 0,2 v 1 H 9 V 11 Z M 8,9 v 1 H 7 V 9 Z m 0,2 v 1 H 7 V 11 Z M 6,9 v 1 H 5.0000002 V 9 Z m 0,2 v 1 H 5.0000002 V 11 Z M 4.0000002,9 v 1 h -1 V 9 Z m 0,2 v 1 h -1 v -1 z" style="fill:currentColor;fill-rule:evenodd"/>
</svg>
